X: 8
T:Goodbye Mick
M:4/4
L:1/4
Q:120
K:D
D/2E/2|"D"FFF>D|FFF>D|FFGF|1"A"FEzC/2D/2|
EEEC|EEE>A|AGFE|"D"FD2:|
